; generated by SuperSlicer 2.3.57 on 2023-11-29 at 11:35:18 UTC

; 

; external perimeters extrusion width = 0.45mm
; perimeters extrusion width = 0.45mm
; infill extrusion width = 0.50mm
; solid infill extrusion width = 0.45mm
; top infill extrusion width = 0.40mm
; support material extrusion width = 0.35mm
; first layer extrusion width = 0.40mm


G10 P0 R250 ; sets the standby temperature
G10 P0 S250 ; set temperature
;TYPE:Custom
; custom gcode: start_gcode
M140 S110                           ; heat bed
M98 P"initial.g"
; custom gcode end: start_gcode
G21 ; set units to millimeters
G90 ; use absolute coordinates
M83 ; use relative distances for extrusion
G10 P0 S250 ; set temperature
M116 ; wait for temperature to be reached
;LAYER_CHANGE
;Z:0.24
;HEIGHT:0.24
G1 Z0.24 F18000
G1 E-0.4 F6000
M204 P2500 T2500
G1 X-41.94 Y-8.387 F18000
G1 E0.4 F3000
;TYPE:Skirt
;WIDTH:0.65
G1 F4500
G1 X-41.436 Y-10.904 E0.15332
G1 X-41.164 Y-13.183 E0.13706
G1 X-39.639 Y-65.023 E3.09714
G1 X-39.799 Y-68.593 E0.21336
G1 X-40.286 Y-71.999 E0.20549
G1 X-41.102 Y-75.364 E0.20678
G1 X-42.231 Y-78.623 E0.20597
G1 X-43.656 Y-81.742 E0.20477
G1 X-45.398 Y-84.752 E0.20771
G1 X-47.4 Y-87.552 E0.20554
G1 X-49.797 Y-90.291 E0.21737
G1 X-52.326 Y-92.664 E0.20705
G1 X-53.662 Y-93.748 E0.10276
G1 X-55.967 Y-95.389 E0.16897
G1 X-59.102 Y-97.225 E0.21698
G1 X-62.078 Y-98.601 E0.1958
G1 X-65.514 Y-99.808 E0.21748
G1 X-68.853 Y-100.624 E0.20527
G1 X-72.288 Y-101.121 E0.20725
G1 X-75.725 Y-101.285 E0.20548
G1 X-77.752 Y-101.226 E0.1211
G1 X-80.871 Y-100.918 E0.18716
G1 X-83.946 Y-100.336 E0.18691
G1 X-85.903 Y-99.823 E0.12083
G1 X-88.864 Y-98.81 E0.18687
G1 X-90.729 Y-98.023 E0.12087
G1 X-93.523 Y-96.594 E0.18743
G1 X-95.271 Y-95.54 E0.12189
G1 X-97.811 Y-93.742 E0.18583
G1 X-99.378 Y-92.461 E0.12087
G1 X-101.649 Y-90.31 E0.18683
G1 X-103.03 Y-88.805 E0.12196
G1 X-104.96 Y-86.366 E0.18572
G1 X-106.113 Y-84.68 E0.12202
G1 X-107.688 Y-81.969 E0.18723
G1 X-108.628 Y-80.045 E0.12787
G1 X-109.839 Y-77.002 E0.19557
G1 X-110.754 Y-73.921 E0.19195
G1 X-111.415 Y-70.612 E0.2015
G1 X-111.687 Y-68.333 E0.13706
G1 X-113.212 Y-16.493 E3.09714
G1 X-113.053 Y-12.924 E0.21336
G1 X-112.567 Y-9.526 E0.20497
G1 X-111.753 Y-6.16 E0.20678
G1 X-110.624 Y-2.901 E0.20597
G1 X-109.195 Y0.225 E0.20529
G1 X-107.458 Y3.228 E0.20718
G1 X-105.457 Y6.029 E0.20554
G1 X-103.073 Y8.756 E0.21632
G1 X-100.681 Y11.017 E0.19656
G1 X-97.816 Y13.243 E0.21669
G1 X-94.901 Y15.082 E0.2058
G1 X-92.386 Y16.379 E0.16898
G1 X-90.798 Y17.074 E0.10353
G1 X-87.355 Y18.287 E0.21801
G1 X-84.033 Y19.1 E0.20422
G1 X-80.59 Y19.602 E0.20778
G1 X-77.285 Y19.768 E0.19761
G1 X-75.135 Y19.713 E0.12845
G1 X-72.016 Y19.406 E0.18716
G1 X-70.001 Y19.058 E0.12208
G1 X-66.982 Y18.316 E0.18565
G1 X-65.039 Y17.685 E0.12203
G1 X-62.131 Y16.51 E0.18729
G1 X-60.314 Y15.616 E0.12092
G1 X-57.61 Y14.042 E0.18682
G1 X-55.048 Y12.232 E0.18736
G1 X-53.48 Y10.951 E0.12091
G1 X-51.202 Y8.794 E0.18736
G1 X-49.827 Y7.296 E0.12144
G1 X-47.892 Y4.85 E0.18625
G1 X-46.738 Y3.163 E0.12202
G1 X-45.163 Y0.452 E0.18723
G1 X-44.231 Y-1.455 E0.12681
G1 X-43.015 Y-4.506 E0.1961
G1 X-42.098 Y-7.596 E0.19248
G1 X-41.955 Y-8.313 E0.0437
G1 X-42.534 Y-8.426 F18000
G1 F4500
G1 X-41.991 Y-11.227 E0.1704
G1 X-41.681 Y-14.344 E0.18707
G1 X-40.238 Y-65.037 E3.02853
G1 X-40.395 Y-68.538 E0.20927
G1 X-40.874 Y-71.888 E0.20208
G1 X-41.674 Y-75.189 E0.20283
G1 X-42.787 Y-78.402 E0.20306
G1 X-44.189 Y-81.468 E0.20137
G1 X-45.897 Y-84.422 E0.20374
G1 X-47.865 Y-87.176 E0.20213
G1 X-50.227 Y-89.875 E0.21419
G1 X-52.707 Y-92.202 E0.2031
G1 X-54.02 Y-93.269 E0.10105
G1 X-56.302 Y-94.894 E0.16727
G1 X-59.387 Y-96.699 E0.21348
G1 X-62.315 Y-98.052 E0.19262
G1 X-65.685 Y-99.235 E0.21328
G1 X-68.969 Y-100.036 E0.20186
G1 X-72.347 Y-100.525 E0.2038
G1 X-75.727 Y-100.687 E0.20208
G1 X-77.709 Y-100.629 E0.11844
G1 X-80.787 Y-100.325 E0.1847
G1 X-83.819 Y-99.751 E0.18427
G1 X-85.736 Y-99.248 E0.11837
G1 X-88.655 Y-98.249 E0.18423
G1 X-90.481 Y-97.478 E0.1184
G1 X-93.239 Y-96.067 E0.18496
G1 X-94.948 Y-95.036 E0.11922
G1 X-97.455 Y-93.262 E0.1834
G1 X-98.987 Y-92.008 E0.11822
G1 X-101.228 Y-89.885 E0.18438
G1 X-102.584 Y-88.406 E0.1198
G1 X-104.488 Y-85.998 E0.1833
G1 X-105.615 Y-84.348 E0.11934
G1 X-107.168 Y-81.672 E0.18477
G1 X-108.097 Y-79.767 E0.12658
G1 X-109.286 Y-76.772 E0.1924
G1 X-110.224 Y-73.573 E0.19912
G1 X-110.86 Y-70.29 E0.19973
G1 X-111.17 Y-67.172 E0.18707
G1 X-112.614 Y-16.479 E3.02853
G1 X-112.457 Y-12.978 E0.20927
G1 X-111.979 Y-9.637 E0.20157
G1 X-111.178 Y-6.328 E0.20334
G1 X-110.068 Y-3.123 E0.20255
G1 X-108.667 Y-0.056 E0.20137
G1 X-106.954 Y2.905 E0.20425
G1 X-104.992 Y5.653 E0.20162
G1 X-102.649 Y8.334 E0.21265
G1 X-100.296 Y10.559 E0.19337
G1 X-97.48 Y12.748 E0.21301
G1 X-94.614 Y14.557 E0.20238
G1 X-92.124 Y15.84 E0.16729
G1 X-90.568 Y16.522 E0.10147
G1 X-87.183 Y17.714 E0.2143
G1 X-83.908 Y18.515 E0.20135
G1 X-80.531 Y19.006 E0.2038
G1 X-77.28 Y19.169 E0.19439
G1 X-75.177 Y19.116 E0.12562
G1 X-72.099 Y18.813 E0.1847
G1 X-70.128 Y18.473 E0.11941
G1 X-67.14 Y17.739 E0.18374
G1 X-65.24 Y17.121 E0.11935
G1 X-62.378 Y15.965 E0.18431
G1 X-59.624 Y14.557 E0.18472
G1 X-57.925 Y13.533 E0.11843
G1 X-55.407 Y11.753 E0.1842
G1 X-53.871 Y10.498 E0.11844
G1 X-51.624 Y8.368 E0.18489
G1 X-50.273 Y6.896 E0.11928
G1 X-48.369 Y4.489 E0.1833
G1 X-47.242 Y2.839 E0.11934
G1 X-45.688 Y0.164 E0.18477
G1 X-44.762 Y-1.734 E0.12607
G1 X-43.569 Y-4.736 E0.19292
G1 X-42.629 Y-7.935 E0.19912
G1 X-42.549 Y-8.352 E0.02536
G1 X-43.135 Y-8.465 F18000
G1 F4500
G1 X-42.584 Y-11.314 E0.1733
G1 X-42.278 Y-14.396 E0.18491
G1 X-40.836 Y-65.042 E3.02575
G1 X-40.991 Y-68.483 E0.20569
G1 X-41.462 Y-71.776 E0.19866
G1 X-42.248 Y-75.022 E0.1994
G1 X-43.343 Y-78.18 E0.19963
G1 X-44.718 Y-81.188 E0.19747
G1 X-46.401 Y-84.098 E0.20079
G1 X-48.335 Y-86.806 E0.19872
G1 X-50.651 Y-89.452 E0.20997
G1 X-53.088 Y-91.741 E0.19967
G1 X-54.379 Y-92.79 E0.09934
G1 X-56.638 Y-94.398 E0.16558
G1 X-59.665 Y-96.169 E0.20944
G1 X-62.545 Y-97.499 E0.18945
G1 X-65.856 Y-98.661 E0.2096
G1 X-69.085 Y-99.449 E0.19845
G1 X-72.405 Y-99.929 E0.20035
G1 X-75.728 Y-100.088 E0.19867
G1 X-77.666 Y-100.033 E0.1158
G1 X-80.695 Y-99.734 E0.18173
G1 X-83.692 Y-99.166 E0.18214
G1 X-85.569 Y-98.673 E0.11589
G1 X-88.451 Y-97.686 E0.18198
G1 X-90.234 Y-96.933 E0.11555
G1 X-92.947 Y-95.545 E0.18198
G1 X-94.632 Y-94.527 E0.11756
G1 X-97.098 Y-92.781 E0.18046
G1 X-98.596 Y-91.555 E0.11558
G1 X-100.807 Y-89.46 E0.18191
G1 X-102.132 Y-88.014 E0.11712
G1 X-104.005 Y-85.645 E0.18036
G1 X-105.111 Y-84.024 E0.11717
G1 X-106.644 Y-81.384 E0.1823
G1 X-107.564 Y-79.491 E0.12573
G1 X-108.72 Y-76.576 E0.18724
G1 X-109.643 Y-73.43 E0.19578
G1 X-110.268 Y-70.202 E0.19637
G1 X-110.574 Y-67.121 E0.18491
G1 X-112.016 Y-16.474 E3.02575
G1 X-111.861 Y-13.033 E0.20569
G1 X-111.389 Y-9.74 E0.19866
G1 X-110.603 Y-6.495 E0.1994
G1 X-109.512 Y-3.344 E0.19913
G1 X-108.134 Y-0.329 E0.19797
G1 X-106.455 Y2.575 E0.20029
G1 X-104.522 Y5.283 E0.19872
G1 X-102.219 Y7.918 E0.20897
G1 X-99.911 Y10.1 E0.18968
G1 X-97.144 Y12.252 E0.20932
G1 X-94.328 Y14.032 E0.19896
G1 X-91.863 Y15.302 E0.16559
G1 X-90.33 Y15.973 E0.09992
G1 X-87.003 Y17.143 E0.21059
G1 X-83.792 Y17.928 E0.19745
G1 X-80.472 Y18.411 E0.20035
G1 X-77.266 Y18.571 E0.19167
G1 X-75.219 Y18.519 E0.1223
G1 X-72.182 Y18.221 E0.18223
G1 X-70.255 Y17.888 E0.11674
G1 X-67.307 Y17.164 E0.18129
G1 X-65.449 Y16.56 E0.11669
G1 X-62.626 Y15.42 E0.18184
G1 X-59.911 Y14.032 E0.18209
G1 X-58.248 Y13.029 E0.11595
G1 X-55.765 Y11.273 E0.18158
G1 X-54.262 Y10.045 E0.11596
G1 X-52.051 Y7.949 E0.18191
G1 X-50.725 Y6.504 E0.11712
G1 X-48.847 Y4.128 E0.18086
G1 X-47.74 Y2.508 E0.11717
G1 X-46.208 Y-0.132 E0.1823
G1 X-45.294 Y-2.01 E0.12473
G1 X-44.131 Y-4.94 E0.18824
G1 X-43.209 Y-8.086 E0.19578
G1 X-43.149 Y-8.392 E0.0186
G1 X-43.736 Y-8.505 F18000
G1 F4500
G1 X-43.174 Y-11.41 E0.17668
G1 X-42.874 Y-14.45 E0.18242
G1 X-41.435 Y-65.047 E3.0228
G1 X-41.587 Y-68.428 E0.20211
G1 X-42.049 Y-71.657 E0.19475
G1 X-42.823 Y-74.854 E0.19646
G1 X-43.896 Y-77.951 E0.19571
G1 X-45.25 Y-80.914 E0.19457
G1 X-46.9 Y-83.768 E0.19684
G1 X-48.801 Y-86.429 E0.19531
G1 X-51.074 Y-89.029 E0.20625
G1 X-53.469 Y-91.279 E0.19624
G1 X-54.737 Y-92.311 E0.09763
G1 X-56.973 Y-93.902 E0.16389
G1 X-59.949 Y-95.642 E0.20588
G1 X-62.781 Y-96.949 E0.18628
G1 X-66.027 Y-98.088 E0.20542
G1 X-69.2 Y-98.862 E0.19504
G1 X-72.463 Y-99.334 E0.1969
G1 X-75.721 Y-99.49 E0.19477
G1 X-77.624 Y-99.436 E0.11366
G1 X-80.611 Y-99.141 E0.17925
G1 X-83.565 Y-98.582 E0.17952
G1 X-85.401 Y-98.099 E0.11339
G1 X-88.237 Y-97.127 E0.179
G1 X-89.986 Y-96.388 E0.11343
G1 X-92.662 Y-95.019 E0.17949
G1 X-94.308 Y-94.024 E0.11489
G1 X-96.734 Y-92.306 E0.17752
G1 X-98.205 Y-91.103 E0.11345
G1 X-100.379 Y-89.041 E0.17895
G1 X-101.685 Y-87.616 E0.11543
G1 X-103.527 Y-85.284 E0.17744
G1 X-104.612 Y-83.694 E0.115
G1 X-106.123 Y-81.089 E0.17981
G1 X-107.031 Y-79.216 E0.1243
G1 X-108.158 Y-76.372 E0.18268
G1 X-109.064 Y-73.28 E0.19244
G1 X-109.677 Y-70.106 E0.19302
G1 X-109.978 Y-67.066 E0.18242
G1 X-111.417 Y-16.469 E3.0228
G1 X-111.265 Y-13.088 E0.20211
G1 X-110.803 Y-9.86 E0.19476
G1 X-110.029 Y-6.662 E0.19646
G1 X-108.956 Y-3.566 E0.19571
G1 X-107.602 Y-0.602 E0.19457
G1 X-105.952 Y2.251 E0.19684
G1 X-104.056 Y4.907 E0.19482
G1 X-101.795 Y7.495 E0.20528
G1 X-99.526 Y9.642 E0.18652
G1 X-96.809 Y11.757 E0.20563
G1 X-94.041 Y13.506 E0.19554
G1 X-91.601 Y14.764 E0.1639
G1 X-90.1 Y15.42 E0.09784
G1 X-86.832 Y16.569 E0.20687
G1 X-83.675 Y17.341 E0.19407
G1 X-80.413 Y17.815 E0.1969
G1 X-77.261 Y17.972 E0.18845
G1 X-75.252 Y17.921 E0.11999
G1 X-72.265 Y17.628 E0.17925
G1 X-70.382 Y17.303 E0.11409
G1 X-67.474 Y16.589 E0.17882
G1 X-65.658 Y16 E0.11405
G1 X-62.873 Y14.875 E0.17936
G1 X-60.197 Y13.506 E0.17947
G1 X-58.564 Y12.521 E0.11393
G1 X-56.117 Y10.789 E0.17898
G1 X-54.653 Y9.592 E0.11296
G1 X-52.473 Y7.525 E0.17943
G1 X-51.172 Y6.106 E0.11494
G1 X-49.325 Y3.768 E0.17792
G1 X-48.244 Y2.184 E0.11451
G1 X-46.733 Y-0.42 E0.17981
G1 X-45.827 Y-2.285 E0.12381
G1 X-44.697 Y-5.136 E0.18316
G1 X-43.788 Y-8.237 E0.19293
G1 X-43.75 Y-8.432 E0.01187
G1 X-44.328 Y-8.556 F18000
G1 F4500
G1 X-43.762 Y-11.528 E0.18068
G1 X-43.466 Y-14.558 E0.18181
G1 X-42.033 Y-65.052 E3.0166
G1 X-42.183 Y-68.373 E0.19852
G1 X-42.638 Y-71.553 E0.19182
G1 X-43.397 Y-74.686 E0.19255
G1 X-44.452 Y-77.729 E0.19229
G1 X-45.782 Y-80.64 E0.19117
G1 X-47.403 Y-83.444 E0.19339
G1 X-49.266 Y-86.053 E0.19142
G1 X-51.498 Y-88.606 E0.20253
G1 X-53.85 Y-90.818 E0.19281
G1 X-57.308 Y-93.407 E0.25798
G1 X-60.226 Y-95.112 E0.2018
G1 X-63.01 Y-96.396 E0.18312
G1 X-66.198 Y-97.514 E0.20173
G1 X-69.323 Y-98.276 E0.1921
G1 X-72.522 Y-98.738 E0.19298
G1 X-75.723 Y-98.891 E0.19138
G1 X-77.581 Y-98.839 E0.11103
G1 X-80.535 Y-98.547 E0.17723
G1 X-83.446 Y-97.995 E0.17699
G1 X-85.256 Y-97.518 E0.11175
G1 X-88.037 Y-96.563 E0.17557
G1 X-89.767 Y-95.83 E0.11223
G1 X-92.404 Y-94.477 E0.17699
G1 X-94.13 Y-93.424 E0.12075
G1 X-96.402 Y-91.806 E0.16656
G1 X-97.855 Y-90.613 E0.11225
G1 X-99.991 Y-88.583 E0.17599
G1 X-101.36 Y-87.073 E0.12174
G1 X-103.184 Y-84.739 E0.17689
G1 X-104.793 Y-82.251 E0.17695
G1 X-105.765 Y-80.478 E0.12073
G1 X-106.933 Y-77.923 E0.16777
G1 X-107.654 Y-75.988 E0.12329
G1 X-108.525 Y-72.952 E0.18863
G1 X-109.09 Y-69.988 E0.18021
G1 X-109.385 Y-66.958 E0.18181
G1 X-110.819 Y-16.464 E3.0166
G1 X-110.669 Y-13.143 E0.19852
G1 X-110.215 Y-9.971 E0.19135
G1 X-109.454 Y-6.83 E0.19302
G1 X-108.403 Y-3.795 E0.19182
G1 X-107.07 Y-0.876 E0.19165
G1 X-105.453 Y1.921 E0.19292
G1 X-103.586 Y4.536 E0.1919
G1 X-101.371 Y7.073 E0.20111
G1 X-99.135 Y9.189 E0.18383
G1 X-96.473 Y11.261 E0.20145
G1 X-93.754 Y12.981 E0.19212
G1 X-89.863 Y14.871 E0.25831
G1 X-86.661 Y15.996 E0.20267
G1 X-83.552 Y16.755 E0.19116
G1 X-80.354 Y17.219 E0.19298
G1 X-77.256 Y17.374 E0.18523
G1 X-75.294 Y17.324 E0.11719
G1 X-72.341 Y17.034 E0.17723
G1 X-70.501 Y16.717 E0.11146
G1 X-67.619 Y16.008 E0.17728
G1 X-64.815 Y15.047 E0.17699
G1 X-63.092 Y14.317 E0.11175
G1 X-60.448 Y12.961 E0.17746
G1 X-58.741 Y11.921 E0.11933
G1 X-56.449 Y10.29 E0.16798
G1 X-55.003 Y9.102 E0.11178
G1 X-52.867 Y7.072 E0.17599
G1 X-51.497 Y5.562 E0.12174
G1 X-49.77 Y3.364 E0.16696
G1 X-48.638 Y1.686 E0.12085
G1 X-47.165 Y-0.883 E0.17684
G1 X-45.926 Y-3.575 E0.17699
G1 X-45.197 Y-5.528 E0.12447
G1 X-44.349 Y-8.484 E0.18368
G1 E-0.4 F6000
G1 X-54.7 Y-10.931 F18000
G1 E0.4 F3000
;WIDTH:0.4
G1 F4500
G1 X-54.719 Y-10.851 E0.00287
G1 X-54.982 Y-9.871 E0.03529
G1 X-55.005 Y-9.791 E0.0029
G1 X-55.314 Y-8.826 E0.03523
G1 X-55.341 Y-8.747 E0.00289
G1 X-55.696 Y-7.796 E0.03532
G1 X-55.726 Y-7.719 E0.00287
G1 X-56.126 Y-6.786 E0.0353
G1 X-56.16 Y-6.71 E0.0029
G1 X-56.603 Y-5.799 E0.03522
G1 X-56.641 Y-5.725 E0.00289
G1 X-57.128 Y-4.834 E0.03531
G1 X-57.169 Y-4.762 E0.00287
G1 X-57.697 Y-3.895 E0.03531
G1 X-57.742 Y-3.825 E0.00289
G1 X-58.31 Y-2.986 E0.03522
G1 X-58.358 Y-2.918 E0.0029
G1 X-58.967 Y-2.106 E0.0353
G1 X-59.018 Y-2.041 E0.00287
G1 X-59.664 Y-1.257 E0.03532
G1 X-59.718 Y-1.195 E0.00288
G1 X-60.4 Y-0.445 E0.03523
G1 X-60.457 Y-0.385 E0.0029
G1 X-61.175 Y0.333 E0.03529
G1 X-61.235 Y0.39 E0.00287
G1 X-61.986 Y1.073 E0.03532
G1 X-62.049 Y1.128 E0.00288
G1 X-62.83 Y1.773 E0.03524
G1 X-62.896 Y1.825 E0.0029
G1 X-63.708 Y2.432 E0.03528
G1 X-63.775 Y2.48 E0.00287
G1 X-64.616 Y3.05 E0.03532
G1 X-64.686 Y3.095 E0.00288
G1 X-65.551 Y3.622 E0.03526
G1 X-65.624 Y3.664 E0.0029
G1 X-66.514 Y4.15 E0.03526
G1 X-66.587 Y4.188 E0.00288
G1 X-67.501 Y4.632 E0.03532
G1 X-67.576 Y4.666 E0.00287
G1 X-68.508 Y5.066 E0.03527
G1 X-68.586 Y5.097 E0.0029
G1 X-69.535 Y5.451 E0.03524
G1 X-69.614 Y5.478 E0.00288
G1 X-70.581 Y5.787 E0.03532
G1 X-70.66 Y5.811 E0.00287
G1 X-71.64 Y6.074 E0.03529
G1 X-71.721 Y6.093 E0.0029
G1 X-72.711 Y6.309 E0.03523
G1 X-72.793 Y6.324 E0.00288
G1 X-73.794 Y6.493 E0.03532
G1 X-73.876 Y6.505 E0.00287
G1 X-74.884 Y6.625 E0.0353
G1 X-74.967 Y6.633 E0.0029
G1 X-75.977 Y6.706 E0.03522
G1 X-76.06 Y6.71 E0.00289
G1 X-77.076 Y6.734 E0.03531
G1 X-77.158 Y6.734 E0.00287
G1 X-78.173 Y6.71 E0.03531
G1 X-78.256 Y6.706 E0.00289
G1 X-79.267 Y6.634 E0.03522
G1 X-79.349 Y6.626 E0.0029
G1 X-80.357 Y6.505 E0.0353
G1 X-80.439 Y6.493 E0.00287
G1 X-81.441 Y6.325 E0.03532
G1 X-81.522 Y6.31 E0.00288
G1 X-82.512 Y6.094 E0.03523
G1 X-82.593 Y6.075 E0.0029
G1 X-83.573 Y5.812 E0.03529
G1 X-83.653 Y5.789 E0.00287
G1 X-84.62 Y5.48 E0.03532
G1 X-84.699 Y5.453 E0.00288
G1 X-85.648 Y5.099 E0.03524
G1 X-85.726 Y5.068 E0.0029
G1 X-86.658 Y4.668 E0.03528
G1 X-86.733 Y4.634 E0.00287
G1 X-87.647 Y4.19 E0.03532
G1 X-87.721 Y4.152 E0.00288
G1 X-88.61 Y3.667 E0.03526
G1 X-88.683 Y3.625 E0.0029
G1 X-89.549 Y3.097 E0.03526
G1 X-89.618 Y3.052 E0.00288
G1 X-90.459 Y2.483 E0.03532
G1 X-90.527 Y2.435 E0.00287
G1 X-91.339 Y1.828 E0.03527
G1 X-91.405 Y1.776 E0.0029
G1 X-92.186 Y1.131 E0.03524
G1 X-92.249 Y1.076 E0.00288
G1 X-93 Y0.393 E0.03532
G1 X-93.06 Y0.336 E0.00287
G1 X-93.778 Y-0.381 E0.03529
G1 X-93.835 Y-0.441 E0.0029
G1 X-94.517 Y-1.191 E0.03523
G1 X-94.571 Y-1.254 E0.00289
G1 X-95.218 Y-2.037 E0.03532
G1 X-95.269 Y-2.102 E0.00287
G1 X-95.877 Y-2.914 E0.0353
G1 X-95.926 Y-2.982 E0.0029
G1 X-96.494 Y-3.821 E0.03522
G1 X-96.538 Y-3.891 E0.00289
G1 X-97.067 Y-4.758 E0.03531
G1 X-97.108 Y-4.829 E0.00287
G1 X-97.595 Y-5.721 E0.03531
G1 X-97.633 Y-5.794 E0.00289
G1 X-98.076 Y-6.705 E0.03522
G1 X-98.11 Y-6.781 E0.0029
G1 X-98.51 Y-7.714 E0.0353
G1 X-98.541 Y-7.791 E0.00287
G1 X-98.896 Y-8.743 E0.03532
G1 X-98.923 Y-8.821 E0.00289
G1 X-99.232 Y-9.786 E0.03523
G1 X-99.255 Y-9.866 E0.0029
G1 X-99.518 Y-10.846 E0.03529
G1 X-99.537 Y-10.926 E0.00287
G1 X-99.753 Y-11.919 E0.03532
G1 X-99.769 Y-12 E0.00288
G1 X-99.937 Y-12.999 E0.03523
G1 X-99.949 Y-13.082 E0.0029
G1 X-100.069 Y-14.086 E0.03518
G1 X-100.077 Y-14.169 E0.00288
G1 X-100.15 Y-15.18 E0.03525
G1 X-100.154 Y-15.262 E0.00286
G1 X-100.178 Y-16.281 E0.03543
G1 X-100.178 Y-16.365 E0.00294
G1 X-100.154 Y-17.384 E0.03543
G1 X-100.15 Y-17.466 E0.00286
G1 X-100.078 Y-18.477 E0.03525
G1 X-100.07 Y-18.559 E0.00288
G1 X-99.95 Y-19.564 E0.03518
G1 X-99.938 Y-19.646 E0.0029
