; generated by SuperSlicer 2.4 on 2022-07-15 at 18:18:10 UTC

; 

; external perimeters extrusion width = 0.50mm
; perimeters extrusion width = 0.50mm
; infill extrusion width = 0.48mm
; solid infill extrusion width = 0.48mm
; top infill extrusion width = 0.40mm
; support material extrusion width = 0.36mm
; first layer extrusion width = 0.54mm


G10 P0 R390 ; sets the standby temperature
;TYPE:Custom
; custom gcode: start_gcode
M104 T0 S390 R390 ; heat hotend
M140 S160                           ; heat bed
M98 P"initial.g"
; custom gcode end: start_gcode
M107
G21 ; set units to millimeters
G90 ; use absolute coordinates
M83 ; use relative distances for extrusion
; custom gcode: start_filament_gcode
; Filament gcode
M221 S100
M572 D0:1 S0.1
; custom gcode end: start_filament_gcode
;LAYER_CHANGE
;Z:0.24
;HEIGHT:0.24
G1 Z0.24 F18000
G92 E0
G1 E-1 F6000
M204 P2500 T2500
G1 X0 Y-36.09 F18000
G1 E1 F3000
;TYPE:Skirt
;WIDTH:0.52
G1 F4500
G1 X-9.9 Y-36.09 E0.46279
G1 X-14.387 Y-35.703 E0.21053
G1 X-18.807 Y-34.529 E0.21377
G1 X-22.955 Y-32.605 E0.21377
G1 X-26.705 Y-29.988 E0.21377
G1 X-29.943 Y-26.759 E0.21377
G1 X-32.57 Y-23.015 E0.21377
G1 X-34.506 Y-18.872 E0.21377
G1 X-35.691 Y-14.456 E0.21377
G1 X-36.09 Y-9.9 E0.21377
G1 X-36.09 Y9.9 E0.92558
G1 X-35.703 Y14.387 E0.21053
G1 X-34.529 Y18.807 E0.21377
G1 X-32.605 Y22.955 E0.21377
G1 X-29.988 Y26.705 E0.21377
G1 X-26.759 Y29.943 E0.21377
G1 X-23.015 Y32.57 E0.21377
G1 X-18.872 Y34.506 E0.21377
G1 X-14.456 Y35.691 E0.21377
G1 X-9.9 Y36.09 E0.21377
G1 X9.9 Y36.09 E0.92558
G1 X14.387 Y35.703 E0.21053
G1 X18.807 Y34.529 E0.21377
G1 X22.955 Y32.605 E0.21377
G1 X26.705 Y29.988 E0.21377
G1 X29.943 Y26.759 E0.21377
G1 X32.57 Y23.015 E0.21377
G1 X34.506 Y18.872 E0.21377
G1 X35.691 Y14.456 E0.21377
G1 X36.09 Y9.9 E0.21377
G1 X36.09 Y-9.9 E0.92558
G1 X35.703 Y-14.387 E0.21053
G1 X34.529 Y-18.807 E0.21377
G1 X32.605 Y-22.955 E0.21377
G1 X29.988 Y-26.705 E0.21377
G1 X26.759 Y-29.943 E0.21377
G1 X23.015 Y-32.57 E0.21377
G1 X18.872 Y-34.506 E0.21377
G1 X14.456 Y-35.691 E0.21377
G1 X9.9 Y-36.09 E0.21377
G1 X0.06 Y-36.09 E0.45999
G1 X0.06 Y-35.622 F18000
G1 F4500
G1 X-9.9 Y-35.622 E0.4656
G1 X-13.985 Y-35.296 E0.19156
G1 X-18.378 Y-34.185 E0.21185
G1 X-22.509 Y-32.32 E0.21185
G1 X-26.248 Y-29.759 E0.21185
G1 X-29.479 Y-26.582 E0.21185
G1 X-32.103 Y-22.887 E0.21185
G1 X-34.037 Y-18.788 E0.21185
G1 X-35.223 Y-14.414 E0.21185
G1 X-35.622 Y-9.9 E0.21185
G1 X-35.622 Y9.9 E0.92558
G1 X-35.296 Y13.985 E0.19156
G1 X-34.185 Y18.378 E0.21185
G1 X-32.32 Y22.509 E0.21185
G1 X-29.759 Y26.248 E0.21185
G1 X-26.582 Y29.479 E0.21185
G1 X-22.887 Y32.103 E0.21185
G1 X-18.788 Y34.037 E0.21185
G1 X-14.414 Y35.223 E0.21185
G1 X-9.9 Y35.622 E0.21185
G1 X9.9 Y35.622 E0.92558
G1 X13.985 Y35.296 E0.19156
G1 X18.378 Y34.185 E0.21185
G1 X22.509 Y32.32 E0.21185
G1 X26.248 Y29.759 E0.21185
G1 X29.479 Y26.582 E0.21185
G1 X32.103 Y22.887 E0.21185
G1 X34.037 Y18.788 E0.21185
G1 X35.223 Y14.414 E0.21185
G1 X35.622 Y9.9 E0.21185
G1 X35.622 Y-9.9 E0.92558
G1 X35.296 Y-13.985 E0.19156
G1 X34.185 Y-18.378 E0.21185
G1 X32.32 Y-22.509 E0.21185
G1 X29.759 Y-26.248 E0.21185
G1 X26.582 Y-29.479 E0.21185
G1 X22.887 Y-32.103 E0.21185
G1 X18.788 Y-34.037 E0.21185
G1 X14.414 Y-35.223 E0.21185
G1 X9.9 Y-35.622 E0.21185
G1 X0.12 Y-35.622 E0.45718
G1 X0.12 Y-35.154 F18000
G1 F4500
G1 X-9.9 Y-35.154 E0.4684
G1 X-13.585 Y-34.883 E0.17272
G1 X-17.951 Y-33.836 E0.20991
G1 X-22.063 Y-32.031 E0.20991
G1 X-25.791 Y-29.527 E0.20991
G1 X-29.015 Y-26.403 E0.20991
G1 X-31.636 Y-22.756 E0.20991
G1 X-33.569 Y-18.704 E0.20991
G1 X-34.754 Y-14.373 E0.20991
G1 X-35.154 Y-9.9 E0.20991
G1 X-35.154 Y9.9 E0.92558
G1 X-34.883 Y13.585 E0.17272
G1 X-33.836 Y17.951 E0.20991
G1 X-32.031 Y22.063 E0.20991
G1 X-29.527 Y25.791 E0.20991
G1 X-26.403 Y29.015 E0.20991
G1 X-22.756 Y31.636 E0.20991
G1 X-18.704 Y33.569 E0.20991
G1 X-14.373 Y34.754 E0.20991
G1 X-9.9 Y35.154 E0.20991
G1 X9.9 Y35.154 E0.92558
G1 X13.585 Y34.883 E0.17272
G1 X17.951 Y33.836 E0.20991
G1 X22.063 Y32.031 E0.20991
G1 X25.791 Y29.527 E0.20991
G1 X29.015 Y26.403 E0.20991
G1 X31.636 Y22.756 E0.20991
G1 X33.569 Y18.704 E0.20991
G1 X34.754 Y14.373 E0.20991
G1 X35.154 Y9.9 E0.20991
G1 X35.154 Y-9.9 E0.92558
G1 X34.883 Y-13.585 E0.17272
G1 X33.836 Y-17.951 E0.20991
G1 X32.031 Y-22.063 E0.20991
G1 X29.527 Y-25.791 E0.20991
G1 X26.403 Y-29.015 E0.20991
G1 X22.756 Y-31.636 E0.20991
G1 X18.704 Y-33.569 E0.20991
G1 X14.373 Y-34.754 E0.20991
G1 X9.9 Y-35.154 E0.20991
G1 X0.18 Y-35.154 E0.45438
G1 X0.18 Y-34.685 F18000
G1 F4500
G1 X-9.9 Y-34.685 E0.47121
G1 X-13.188 Y-34.466 E0.15402
G1 X-17.526 Y-33.483 E0.20795
G1 X-21.619 Y-31.74 E0.20795
G1 X-25.334 Y-29.293 E0.20795
G1 X-28.552 Y-26.222 E0.20795
G1 X-31.169 Y-22.625 E0.20795
G1 X-33.101 Y-18.618 E0.20795
G1 X-34.286 Y-14.33 E0.20795
G1 X-34.685 Y-9.9 E0.20795
G1 X-34.685 Y9.9 E0.92558
G1 X-34.466 Y13.188 E0.15402
G1 X-33.483 Y17.526 E0.20795
G1 X-31.74 Y21.619 E0.20795
G1 X-29.293 Y25.334 E0.20795
G1 X-26.222 Y28.552 E0.20795
G1 X-22.625 Y31.169 E0.20795
G1 X-18.618 Y33.101 E0.20795
G1 X-14.33 Y34.286 E0.20795
G1 X-9.9 Y34.685 E0.20795
G1 X9.9 Y34.685 E0.92558
G1 X13.188 Y34.466 E0.15402
G1 X17.526 Y33.483 E0.20795
G1 X21.619 Y31.74 E0.20795
G1 X25.334 Y29.293 E0.20795
G1 X28.552 Y26.222 E0.20795
G1 X31.169 Y22.625 E0.20795
G1 X33.101 Y18.618 E0.20795
G1 X34.286 Y14.33 E0.20795
G1 X34.685 Y9.9 E0.20795
G1 X34.685 Y-9.9 E0.92558
G1 X34.466 Y-13.188 E0.15402
G1 X33.483 Y-17.526 E0.20795
G1 X31.74 Y-21.619 E0.20795
G1 X29.293 Y-25.334 E0.20795
G1 X26.222 Y-28.552 E0.20795
G1 X22.625 Y-31.169 E0.20795
G1 X18.618 Y-33.101 E0.20795
G1 X14.33 Y-34.286 E0.20795
G1 X9.9 Y-34.685 E0.20795
G1 X0.24 Y-34.685 E0.45157
G1 X0.24 Y-34.217 F18000
G1 F4500
G1 X-9.9 Y-34.217 E0.47401
G1 X-12.793 Y-34.044 E0.13546
G1 X-17.102 Y-33.126 E0.20597
G1 X-21.175 Y-31.445 E0.20597
G1 X-24.877 Y-29.056 E0.20597
G1 X-28.088 Y-26.039 E0.20597
G1 X-30.702 Y-22.492 E0.20597
G1 X-32.633 Y-18.532 E0.20597
G1 X-33.817 Y-14.288 E0.20597
G1 X-34.217 Y-9.9 E0.20597
G1 X-34.217 Y9.9 E0.92558
G1 X-34.044 Y12.793 E0.13546
G1 X-33.126 Y17.102 E0.20597
G1 X-31.445 Y21.175 E0.20597
G1 X-29.056 Y24.877 E0.20597
G1 X-26.039 Y28.088 E0.20597
G1 X-22.492 Y30.702 E0.20597
G1 X-18.532 Y32.633 E0.20597
G1 X-14.288 Y33.817 E0.20597
G1 X-9.9 Y34.217 E0.20597
G1 X9.9 Y34.217 E0.92558
G1 X12.793 Y34.044 E0.13546
G1 X17.102 Y33.126 E0.20597
G1 X21.175 Y31.445 E0.20597
G1 X24.877 Y29.056 E0.20597
G1 X28.088 Y26.039 E0.20597
G1 X30.702 Y22.492 E0.20597
G1 X32.633 Y18.532 E0.20597
G1 X33.817 Y14.288 E0.20597
G1 X34.217 Y9.9 E0.20597
G1 X34.217 Y-9.9 E0.92558
G1 X34.044 Y-12.793 E0.13546
G1 X33.126 Y-17.102 E0.20597
G1 X31.445 Y-21.175 E0.20597
G1 X29.056 Y-24.877 E0.20597
G1 X26.039 Y-28.088 E0.20597
G1 X22.492 Y-30.702 E0.20597
G1 X18.532 Y-32.633 E0.20597
G1 X14.288 Y-33.817 E0.20597
G1 X9.9 Y-34.217 E0.20597
G1 X0.3 Y-34.217 E0.44877
G1 X0.3 Y-33.748 F18000
G1 F4500
G1 X-9.9 Y-33.748 E0.47682
G1 X-12.4 Y-33.617 E0.11705
G1 X-16.68 Y-32.764 E0.20397
G1 X-20.732 Y-31.146 E0.20397
G1 X-24.422 Y-28.817 E0.20397
G1 X-27.625 Y-25.855 E0.20397
G1 X-30.235 Y-22.358 E0.20397
G1 X-32.165 Y-18.445 E0.20397
G1 X-33.349 Y-14.245 E0.20397
G1 X-33.748 Y-9.9 E0.20397
G1 X-33.748 Y9.9 E0.92558
G1 X-33.617 Y12.4 E0.11705
G1 X-32.764 Y16.68 E0.20397
G1 X-31.146 Y20.732 E0.20397
G1 X-28.817 Y24.422 E0.20397
G1 X-25.855 Y27.625 E0.20397
G1 X-22.358 Y30.235 E0.20397
G1 X-18.445 Y32.165 E0.20397
G1 X-14.245 Y33.349 E0.20397
G1 X-9.9 Y33.748 E0.20397
G1 X9.9 Y33.748 E0.92558
G1 X12.4 Y33.617 E0.11705
G1 X16.68 Y32.764 E0.20397
G1 X20.732 Y31.146 E0.20397
G1 X24.422 Y28.817 E0.20397
G1 X27.625 Y25.855 E0.20397
G1 X30.235 Y22.358 E0.20397
G1 X32.165 Y18.445 E0.20397
G1 X33.349 Y14.245 E0.20397
G1 X33.748 Y9.9 E0.20397
G1 X33.748 Y-9.9 E0.92558
G1 X33.617 Y-12.4 E0.11705
G1 X32.764 Y-16.68 E0.20397
G1 X31.146 Y-20.732 E0.20397
G1 X28.817 Y-24.422 E0.20397
G1 X25.855 Y-27.625 E0.20397
G1 X22.358 Y-30.235 E0.20397
G1 X18.445 Y-32.165 E0.20397
G1 X14.245 Y-33.349 E0.20397
G1 X9.9 Y-33.748 E0.20397
G1 X0.36 Y-33.748 E0.44596
G1 X0.36 Y-33.28 F18000
G1 F4500
G1 X-9.9 Y-33.28 E0.47962
G1 X-16.259 Y-32.398 E0.30011
G1 X-20.29 Y-30.844 E0.20195
G1 X-23.966 Y-28.575 E0.20195
G1 X-27.162 Y-25.668 E0.20195
G1 X-29.769 Y-22.222 E0.20195
G1 X-31.697 Y-18.356 E0.20195
G1 X-32.88 Y-14.202 E0.20195
G1 X-33.28 Y-9.9 E0.20195
G1 X-33.28 Y9.9 E0.92558
G1 X-32.398 Y16.259 E0.30011
G1 X-30.844 Y20.29 E0.20195
G1 X-28.575 Y23.966 E0.20195
G1 X-25.668 Y27.162 E0.20195
G1 X-22.222 Y29.769 E0.20195
G1 X-18.356 Y31.697 E0.20195
G1 X-14.202 Y32.88 E0.20195
G1 X-9.9 Y33.28 E0.20195
G1 X9.9 Y33.28 E0.92558
G1 X16.259 Y32.398 E0.30011
G1 X20.29 Y30.844 E0.20195
G1 X23.966 Y28.575 E0.20195
G1 X27.162 Y25.668 E0.20195
G1 X29.769 Y22.222 E0.20195
G1 X31.697 Y18.356 E0.20195
G1 X32.88 Y14.202 E0.20195
G1 X33.28 Y9.9 E0.20195
G1 X33.28 Y-9.9 E0.92558
G1 X32.398 Y-16.259 E0.30011
G1 X30.844 Y-20.29 E0.20195
G1 X28.575 Y-23.966 E0.20195
G1 X25.668 Y-27.162 E0.20195
G1 X22.222 Y-29.769 E0.20195
G1 X18.356 Y-31.697 E0.20195
G1 X14.202 Y-32.88 E0.20195
G1 X9.9 Y-33.28 E0.20195
G1 X0.42 Y-33.28 E0.44316
G1 X0.42 Y-32.811 F18000
G1 F4500
G1 X-9.9 Y-32.811 E0.48243
G1 X-15.84 Y-32.027 E0.2801
G1 X-19.849 Y-30.538 E0.19991
G1 X-23.511 Y-28.329 E0.19991
G1 X-26.699 Y-25.479 E0.19991
G1 X-29.302 Y-22.085 E0.19991
G1 X-31.228 Y-18.267 E0.19991
G1 X-32.412 Y-14.158 E0.19991
G1 X-32.811 Y-9.9 E0.19991
G1 X-32.811 Y9.9 E0.92558
G1 X-32.027 Y15.84 E0.2801
G1 X-30.538 Y19.849 E0.19991
G1 X-28.329 Y23.511 E0.19991
G1 X-25.479 Y26.699 E0.19991
G1 X-22.085 Y29.302 E0.19991
G1 X-18.267 Y31.228 E0.19991
G1 X-14.158 Y32.412 E0.19991
G1 X-9.9 Y32.811 E0.19991
G1 X9.9 Y32.811 E0.92558
G1 X15.84 Y32.027 E0.2801
G1 X19.849 Y30.538 E0.19991
G1 X23.511 Y28.329 E0.19991
G1 X26.699 Y25.479 E0.19991
G1 X29.302 Y22.085 E0.19991
G1 X31.228 Y18.267 E0.19991
G1 X32.412 Y14.158 E0.19991
G1 X32.811 Y9.9 E0.19991
G1 X32.811 Y-9.9 E0.92558
G1 X32.027 Y-15.84 E0.2801
G1 X30.538 Y-19.849 E0.19991
G1 X28.329 Y-23.511 E0.19991
G1 X25.479 Y-26.699 E0.19991
G1 X22.085 Y-29.302 E0.19991
G1 X18.267 Y-31.228 E0.19991
G1 X14.158 Y-32.412 E0.19991
G1 X9.9 Y-32.811 E0.19991
G1 X0.48 Y-32.811 E0.44035
G1 X0.48 Y-32.343 F18000
G1 F4500
G1 X-9.9 Y-32.343 E0.48523
G1 X-15.424 Y-31.652 E0.26023
G1 X-19.41 Y-30.228 E0.19786
G1 X-23.057 Y-28.081 E0.19786
G1 X-26.237 Y-25.288 E0.19786
G1 X-28.835 Y-21.947 E0.19786
G1 X-30.76 Y-18.177 E0.19786
G1 X-31.943 Y-14.114 E0.19786
G1 X-32.343 Y-9.9 E0.19786
G1 X-32.343 Y9.9 E0.92558
G1 X-31.652 Y15.424 E0.26023
G1 X-30.228 Y19.41 E0.19786
G1 X-28.081 Y23.057 E0.19786
G1 X-25.288 Y26.237 E0.19786
G1 X-21.947 Y28.835 E0.19786
G1 X-18.177 Y30.76 E0.19786
G1 X-14.114 Y31.943 E0.19786
G1 X-9.9 Y32.343 E0.19786
G1 X9.9 Y32.343 E0.92558
G1 X15.424 Y31.652 E0.26023
G1 X19.41 Y30.228 E0.19786
G1 X23.057 Y28.081 E0.19786
G1 X26.237 Y25.288 E0.19786
G1 X28.835 Y21.947 E0.19786
G1 X30.76 Y18.177 E0.19786
G1 X31.943 Y14.114 E0.19786
G1 X32.343 Y9.9 E0.19786
G1 X32.343 Y-9.9 E0.92558
G1 X31.652 Y-15.424 E0.26023
G1 X30.228 Y-19.41 E0.19786
G1 X28.081 Y-23.057 E0.19786
G1 X25.288 Y-26.237 E0.19786
G1 X21.947 Y-28.835 E0.19786
G1 X18.177 Y-30.76 E0.19786
G1 X14.114 Y-31.943 E0.19786
G1 X9.9 Y-32.343 E0.19786
G1 X0.54 Y-32.343 E0.43755
G1 X0.54 Y-31.874 F18000
G1 F4500
G1 X-9.9 Y-31.874 E0.48804
G1 X-15.009 Y-31.272 E0.24049
G1 X-18.971 Y-29.914 E0.19577
G1 X-22.603 Y-27.83 E0.19577
G1 X-25.774 Y-25.094 E0.19577
G1 X-28.369 Y-21.807 E0.19577
G1 X-30.292 Y-18.086 E0.19577
G1 X-31.475 Y-14.069 E0.19577
G1 X-31.874 Y-9.9 E0.19577
G1 X-31.874 Y9.9 E0.92558
G1 X-31.272 Y15.009 E0.24049
G1 X-29.914 Y18.971 E0.19577
G1 X-27.83 Y22.603 E0.19577
G1 X-25.094 Y25.774 E0.19577
G1 X-21.807 Y28.369 E0.19577
G1 X-18.086 Y30.292 E0.19577
G1 X-14.069 Y31.475 E0.19577
G1 X-9.9 Y31.874 E0.19577
G1 X9.9 Y31.874 E0.92558
G1 X15.009 Y31.272 E0.24049
G1 X18.971 Y29.914 E0.19577
G1 X22.603 Y27.83 E0.19577
G1 X25.774 Y25.094 E0.19577
G1 X28.369 Y21.807 E0.19577
G1 X30.292 Y18.086 E0.19577
G1 X31.475 Y14.069 E0.19577
G1 X31.874 Y9.9 E0.19577
G1 X31.874 Y-9.9 E0.92558
G1 X31.272 Y-15.009 E0.24049
G1 X29.914 Y-18.971 E0.19577
G1 X27.83 Y-22.603 E0.19577
G1 X25.094 Y-25.774 E0.19577
G1 X21.807 Y-28.369 E0.19577
G1 X18.086 Y-30.292 E0.19577
G1 X14.069 Y-31.475 E0.19577
G1 X9.9 Y-31.874 E0.19577
G1 X0.6 Y-31.874 E0.43474
G1 X0.6 Y-31.406 F18000
G1 F4500
G1 X-9.9 Y-31.406 E0.49084
G1 X-14.597 Y-30.886 E0.22089
G1 X-18.534 Y-29.596 E0.19367
G1 X-22.15 Y-27.575 E0.19367
G1 X-25.312 Y-24.898 E0.19367
G1 X-27.902 Y-21.665 E0.19367
G1 X-29.824 Y-17.994 E0.19367
G1 X-31.006 Y-14.024 E0.19367
G1 X-31.406 Y-9.9 E0.19367
G1 X-31.406 Y9.9 E0.92558
G1 X-30.886 Y14.597 E0.22089
G1 X-29.596 Y18.534 E0.19367
G1 X-27.575 Y22.15 E0.19367
G1 X-24.898 Y25.312 E0.19367
G1 X-21.665 Y27.902 E0.19367
G1 X-17.994 Y29.824 E0.19367
G1 X-14.024 Y31.006 E0.19367
G1 X-9.9 Y31.406 E0.19367
G1 X9.9 Y31.406 E0.92558
G1 X14.597 Y30.886 E0.22089
G1 X18.534 Y29.596 E0.19367
G1 X22.15 Y27.575 E0.19367
G1 X25.312 Y24.898 E0.19367
G1 X27.902 Y21.665 E0.19367
G1 X29.824 Y17.994 E0.19367
G1 X31.006 Y14.024 E0.19367
G1 X31.406 Y9.9 E0.19367
G1 X31.406 Y-9.9 E0.92558
G1 X30.886 Y-14.597 E0.22089
G1 X29.596 Y-18.534 E0.19367
G1 X27.575 Y-22.15 E0.19367
G1 X24.898 Y-25.312 E0.19367
G1 X21.665 Y-27.902 E0.19367
G1 X17.994 Y-29.824 E0.19367
G1 X14.024 Y-31.006 E0.19367
G1 X9.9 Y-31.406 E0.19367
G1 X0.66 Y-31.406 E0.43194
G1 X0.66 Y-30.937 F18000
G1 F4500
G1 X-9.9 Y-30.937 E0.49364
G1 X-14.187 Y-30.496 E0.20144
G1 X-18.098 Y-29.274 E0.19155
G1 X-21.698 Y-27.317 E0.19155
G1 X-24.85 Y-24.7 E0.19155
G1 X-27.436 Y-21.521 E0.19155
G1 X-29.356 Y-17.901 E0.19155
G1 X-30.538 Y-13.978 E0.19155
G1 X-30.937 Y-9.9 E0.19155
G1 X-30.937 Y9.9 E0.92558
G1 X-30.496 Y14.187 E0.20144
G1 X-29.274 Y18.098 E0.19155
G1 X-27.317 Y21.698 E0.19155
G1 X-24.7 Y24.85 E0.19155
G1 X-21.521 Y27.436 E0.19155
G1 X-17.901 Y29.356 E0.19155
G1 X-13.978 Y30.538 E0.19155
G1 X-9.9 Y30.937 E0.19155
G1 X9.9 Y30.937 E0.92558
G1 X14.187 Y30.496 E0.20144
G1 X18.098 Y29.274 E0.19155
G1 X21.698 Y27.317 E0.19155
G1 X24.85 Y24.7 E0.19155
G1 X27.436 Y21.521 E0.19155
G1 X29.356 Y17.901 E0.19155
G1 X30.538 Y13.978 E0.19155
G1 X30.937 Y9.9 E0.19155
G1 X30.937 Y-9.9 E0.92558
G1 X30.496 Y-14.187 E0.20144
G1 X29.274 Y-18.098 E0.19155
G1 X27.317 Y-21.698 E0.19155
G1 X24.7 Y-24.85 E0.19155
G1 X21.521 Y-27.436 E0.19155
G1 X17.901 Y-29.356 E0.19155
G1 X13.978 Y-30.538 E0.19155
G1 X9.9 Y-30.937 E0.19155
G1 X0.72 Y-30.937 E0.42913
G1 X0.72 Y-30.469 F18000
G1 F4500
G1 X-9.9 Y-30.469 E0.49645
G1 X-13.779 Y-30.099 E0.18215
G1 X-17.663 Y-28.947 E0.1894
G1 X-21.246 Y-27.056 E0.1894
G1 X-24.389 Y-24.499 E0.1894
G1 X-26.97 Y-21.376 E0.1894
G1 X-28.888 Y-17.807 E0.1894
G1 X-30.07 Y-13.932 E0.1894
G1 X-30.469 Y-9.9 E0.1894
G1 X-30.469 Y9.9 E0.92558
G1 X-30.099 Y13.779 E0.18215
G1 X-28.947 Y17.663 E0.1894
G1 X-27.056 Y21.246 E0.1894
G1 X-24.499 Y24.389 E0.1894
G1 X-21.376 Y26.97 E0.1894
G1 X-17.807 Y28.888 E0.1894
G1 X-13.932 Y30.07 E0.1894
G1 X-9.9 Y30.469 E0.1894
G1 X9.9 Y30.469 E0.92558
G1 X13.779 Y30.099 E0.18215
G1 X17.663 Y28.947 E0.1894
G1 X21.246 Y27.056 E0.1894
G1 X24.389 Y24.499 E0.1894
G1 X26.97 Y21.376 E0.1894
G1 X28.888 Y17.807 E0.1894
G1 X30.07 Y13.932 E0.1894
G1 X30.469 Y9.9 E0.1894
G1 X30.469 Y-9.9 E0.92558
G1 X30.099 Y-13.779 E0.18215
G1 X28.947 Y-17.663 E0.1894
G1 X27.056 Y-21.246 E0.1894
G1 X24.499 Y-24.389 E0.1894
G1 X21.376 Y-26.97 E0.1894
G1 X17.807 Y-28.888 E0.1894
G1 X13.932 Y-30.07 E0.1894
G1 X9.9 Y-30.469 E0.1894
G1 X0.78 Y-30.469 E0.42633
G1 X0.78 Y-30 F18000
G1 F4500
G1 X-9.9 Y-30 E0.49925
G1 X-13.374 Y-29.698 E0.16301
G1 X-17.23 Y-28.616 E0.18722
G1 X-20.795 Y-26.791 E0.18722
G1 X-23.928 Y-24.296 E0.18722
G1 X-26.503 Y-21.229 E0.18722
G1 X-28.42 Y-17.712 E0.18722
G1 X-29.601 Y-13.885 E0.18722
G1 X-30 Y-9.9 E0.18722
G1 X-30 Y9.9 E0.92558
G1 X-29.698 Y13.374 E0.16301
G1 X-28.616 Y17.23 E0.18722
G1 X-26.791 Y20.795 E0.18722
G1 X-24.296 Y23.928 E0.18722
G1 X-21.229 Y26.503 E0.18722
